<?xml version="1.0" encoding="UTF-8"?>
<map version="1.10" tiledversion="1.12.2" orientation="oblique" renderorder="right-down" width="30" height="20" tilewidth="32" tileheight="32" infinite="0" nextlayerid="14" nextobjectid="35">
 <tileset firstgid="1" source="../../../1_Terrains_and_Fences_32x32.tsx"/>
 <tileset firstgid="2369" source="../../../2_City_Terrains_32x32.tsx"/>
 <tileset firstgid="8446" source="../../../5_Floor_Modular_Buildings_32x32.tsx"/>
 <tileset firstgid="16734" source="../../../4_Generic_Buildings_32x32.tsx"/>
 <tileset firstgid="23134" source="../../../10_Vehicles_32x32.tsx"/>
 <layer id="1" name="road" width="30" height="20">
  <data encoding="csv">
2665,2665,2665,2665,2665,2665,2665,2665,2665,2665,2665,2665,2665,2665,2665,2665,2665,2665,2665,2665,2665,0,0,0,0,2665,2665,2665,2665,2665,
2665,2665,2665,2665,2665,2665,2665,2665,2665,2665,2665,2665,2665,2665,2665,2665,2665,2665,2665,2665,2665,2665,2665,2665,2665,2665,2665,2665,2665,2665,
2665,2665,2665,2665,2665,2665,2665,2665,2665,2665,2665,2665,2665,2665,2665,2665,2665,2665,2665,2665,2665,2665,2665,2665,2665,2665,2665,2665,2665,2665,
2665,2665,2665,2665,2665,2665,2665,2665,2665,2665,2665,2665,2665,2665,2665,2665,2665,2665,2665,2665,2665,2665,2665,2665,2665,2665,2665,2665,2665,2665,
2665,2665,2665,2665,2665,2665,2665,2665,2665,2665,2665,2665,2665,2665,2665,2665,2665,2665,2665,2665,2665,2665,2665,2665,2665,2665,2665,2665,2665,2665,
2665,2665,2665,2665,2665,2665,2665,2665,2665,2665,2665,2665,2665,2665,2665,2665,2665,2665,2665,2665,2665,2665,2665,2665,2665,2665,2665,2665,2665,2665,
2665,2665,2665,2665,2665,2665,2665,2665,2665,2665,2665,2665,2665,2665,2665,2665,2665,2665,2665,2665,2665,2665,2665,2665,2665,2665,2665,2665,2665,2665,
2665,2665,2665,2665,2665,2665,2665,2665,2665,2665,2665,2665,2665,2413,2414,2415,2416,2417,2418,2419,2665,2665,2665,2665,2665,2665,2665,2665,2665,2665,
2665,2665,2665,2665,2665,2665,2665,2665,2665,2665,2665,2665,2665,2472,2473,2474,2475,2476,2477,2478,2665,2665,2665,2665,2665,2665,2665,2665,2665,2665,
2665,2665,2665,2665,2665,2665,2665,2665,2665,2665,2665,2665,2665,2531,2532,2533,2534,2535,2536,2537,2665,2665,2665,2665,2665,2665,2665,2665,2665,2665,
2665,2665,2665,2665,2665,2665,2665,2665,2665,2665,2665,2665,2665,2665,2665,2665,2665,2665,2665,2665,2665,2665,2665,2665,2665,2665,2694,2665,2665,2665,
2665,2665,2665,2665,2665,2665,2665,2665,2665,2665,2665,2665,2665,2665,2665,2665,2665,2665,2665,2665,2665,2665,2665,2665,2665,2665,2694,2665,2665,2665,
2665,2665,2665,2665,2665,2665,2665,2665,2665,2665,2635,2635,2635,2635,2635,2635,2635,2635,2635,2635,2635,2635,2635,2635,2635,2636,2665,2665,2665,2665,
2665,2665,2665,2665,2665,2665,2665,2665,2665,2665,2635,2635,2635,2635,2635,2635,2635,2635,2635,2635,2635,2635,2635,2635,2635,2636,2665,2665,2665,2665,
2665,2665,2665,2665,2665,2665,2665,2665,2564,2565,2566,2665,2665,2665,2665,2665,2665,2665,2665,2665,2665,2665,2665,2665,2665,2665,2665,2665,2665,2665,
2665,2665,2665,2665,2665,2665,2665,2665,2623,2624,2625,2665,2665,2665,2665,2665,2665,2665,2665,2665,2665,2665,2665,2665,2665,2665,2665,2665,2665,2665,
2665,2665,2665,2665,2665,2665,2665,2665,2682,2683,2684,2665,2665,2665,2665,2665,2665,2665,2665,2665,2665,2665,2665,2665,2665,2665,2665,2665,2665,2665,
2665,2665,2665,2665,2665,2665,2665,2665,2741,2742,2743,2665,2665,2665,2665,2665,2665,2665,2665,2665,2665,2665,2665,2665,2665,2665,2665,2665,2665,2665,
2665,2665,2665,2665,2665,2665,2665,2665,2800,2801,2802,2665,2665,2665,2665,2665,2665,2665,2665,2665,2665,2665,2665,2665,2665,2665,2665,2665,2665,2665,
2665,2665,2665,2665,2665,2665,2665,2665,2859,2860,2861,2665,2665,2665,2665,2665,2665,2665,2665,2665,2665,2665,2665,2665,2665,2665,2665,2665,2665,2665
</data>
 </layer>
 <layer id="5" name="pavement" width="30" height="20">
  <data encoding="csv">
2429,2429,2429,2429,2429,2429,2429,2429,2429,2429,2429,2429,2429,2429,2429,2429,2429,2429,2429,2429,2429,2429,2429,2429,2429,2429,2429,2429,2429,2429,
2429,2429,2429,2429,2429,2429,2429,2429,2429,2429,2429,2429,2429,2429,2429,2429,2429,2429,2429,2429,2429,2429,2429,2429,2429,2429,2429,2429,2429,2429,
2429,2429,2429,2429,2429,2429,2429,2429,2429,2429,2429,2429,2429,2429,2429,2429,2429,2429,2429,2429,2429,2429,2429,2429,2429,2429,2429,2429,2429,2429,
2429,2429,2429,2429,2429,2429,2429,2429,2429,2429,2429,2429,2429,2429,2429,2429,2429,2429,2429,2429,2429,2429,2429,2429,2429,2429,2429,2429,2429,2429,
2429,2429,2429,2429,2429,2429,2429,2429,2429,2429,2429,2429,2429,2429,2429,2429,2429,2429,2429,2429,2429,2429,2429,2429,2429,2429,2429,2429,2429,2429,
2429,2429,2429,2429,2429,2429,2429,2429,2429,2429,2429,2429,2429,2429,2429,2429,2429,2429,2429,2429,2429,2429,2429,2429,2429,2429,2429,2429,2429,2429,
2429,2429,2429,2429,2429,2429,2429,2429,2429,2429,2429,2429,2429,2429,2429,2429,2429,2429,2429,2429,2429,2429,2429,2429,2429,2429,2429,2429,2429,2429,
2429,2429,2429,2550,2488,2488,2488,2488,2488,2488,2488,2488,2488,2488,2488,2488,2488,2488,2488,2488,2488,2488,2488,2488,2488,2488,2488,2488,2488,2488,
2429,2429,2429,2430,0,0,0,0,0,0,0,0,0,0,0,0,0,0,0,0,0,0,0,0,0,0,0,0,0,0,
2429,2429,2429,2430,0,0,0,0,0,0,0,0,0,0,0,0,0,0,0,0,0,0,0,0,0,0,0,0,0,0,
2429,2429,2429,2430,0,0,0,0,0,0,0,0,0,0,0,0,0,0,0,0,0,0,0,0,0,0,0,0,0,0,
2429,2429,2429,2430,0,0,0,0,0,0,0,0,0,0,0,0,0,0,0,0,0,0,0,0,0,0,0,0,0,0,
2429,2429,2429,2430,0,0,0,0,0,0,0,0,0,0,0,0,0,0,0,0,0,0,0,0,0,0,0,0,0,0,
2429,2429,2429,2430,0,0,0,0,0,0,2369,2370,2370,2370,2370,2370,2370,2370,2370,2370,2370,2370,2370,2370,2370,2370,2370,2370,2370,2370,
2429,2429,2429,2430,0,0,0,0,0,0,2428,2429,2429,2429,2429,2429,2429,2429,2429,2429,2429,2429,2429,2429,2429,2429,2429,2429,2429,2429,
2429,2429,2429,2430,0,0,0,0,0,0,2428,2429,2429,2429,2429,2429,2429,2429,2429,2429,2429,2429,2429,2429,2429,2429,2429,2429,2429,2429,
2429,2429,2429,2430,0,0,0,0,0,0,2428,2429,2429,2429,2429,2429,2429,2429,2429,2429,2429,2429,2429,2429,2429,2429,2429,2429,2429,2429,
2429,2429,2429,2430,0,0,0,0,0,0,2428,2429,2429,2429,2429,2429,2429,2429,2429,2429,2429,2429,2429,2429,2429,2429,2429,2429,2429,2429,
2429,2429,2429,2430,0,0,0,0,0,0,2428,2429,2429,2429,2429,2429,2429,2429,2429,2429,2429,2429,2429,2429,2429,2429,2429,2429,2429,2429,
2429,2429,2429,2430,0,0,0,0,0,0,2428,2429,2429,2429,2429,2429,2429,2429,2429,2429,2429,2429,2429,2429,2429,2429,2429,2429,2429,2429
</data>
 </layer>
 <layer id="8" name="buildings" width="30" height="20">
  <data encoding="csv">
0,0,21904,21905,21906,21907,21908,22943,22944,22945,22946,22947,22948,22569,22570,22571,22572,22573,22574,22575,22576,22577,22578,22579,22580,22581,22582,22584,22585,22586,
0,0,21936,21937,21938,21939,21940,22975,22976,22977,22978,22979,22980,22601,22602,22603,22604,22605,22606,22607,22608,22609,22610,22611,22612,22613,22614,22616,22617,22618,
0,0,21968,21969,21970,21971,21972,23007,23008,23009,23010,23011,23012,22633,22634,22635,22636,22637,22638,22639,22640,22641,22642,22643,22644,22645,22646,22648,22649,22650,
0,0,22000,22001,22002,22003,22004,23039,23040,23041,23042,23043,23044,22665,22666,22667,22668,22669,22670,22671,22672,22673,22674,22675,22676,22677,22678,22680,22681,22682,
0,0,22032,22033,22034,22035,22036,23071,23072,23073,23074,23075,23076,22697,22698,22699,22700,22701,22702,22703,22704,22705,22706,22707,22708,22709,22710,22712,22713,22714,
0,0,0,0,0,0,0,0,0,0,0,0,0,22729,22730,22731,22732,22733,22734,22735,22736,22737,22738,22739,22740,22741,22742,22744,22745,22746,
0,0,0,0,0,0,0,0,0,0,0,0,0,0,0,0,0,0,0,0,0,0,0,0,0,0,0,0,0,0,
0,0,0,0,0,0,0,0,0,0,0,0,0,0,0,0,0,0,0,0,0,0,0,0,0,0,0,0,0,0,
0,0,0,0,0,0,0,0,0,0,0,0,0,0,0,0,0,0,0,0,0,0,0,0,0,0,0,0,0,0,
0,0,0,0,0,0,0,0,0,0,0,0,0,0,0,0,0,0,0,0,0,0,0,0,0,0,0,0,0,0,
0,0,0,0,0,0,0,0,0,0,0,0,0,0,0,0,0,0,0,0,0,0,0,0,0,0,0,0,0,0,
0,0,0,0,0,0,0,0,0,0,0,0,0,0,0,0,0,0,0,0,0,0,0,0,0,0,0,0,0,0,
0,0,0,0,0,0,0,0,0,0,0,0,0,0,0,0,0,0,0,0,0,0,0,0,0,0,0,0,0,0,
0,0,0,0,0,0,0,0,0,0,0,0,0,0,0,0,0,0,0,0,0,0,0,0,0,0,0,0,0,0,
0,0,0,0,0,0,0,0,0,0,0,0,0,0,0,0,0,0,0,0,0,0,0,0,0,0,0,0,0,0,
0,0,0,0,0,0,0,0,0,0,0,0,0,0,0,0,0,0,0,0,0,0,0,0,0,0,0,0,0,0,
0,0,0,0,0,0,0,0,0,0,0,0,0,0,0,0,0,0,0,0,0,0,0,0,0,0,0,0,0,0,
0,0,0,0,0,0,0,0,0,0,0,0,0,0,0,0,0,0,0,0,0,0,0,0,0,0,0,0,0,0,
0,0,0,0,0,0,0,0,0,0,0,0,0,0,0,0,0,0,0,0,0,0,0,0,0,0,0,0,0,0,
0,0,0,0,0,0,0,0,0,0,0,0,0,0,0,0,0,0,0,0,0,0,0,0,0,0,0,0,0,0
</data>
 </layer>
 <layer id="9" name="props" width="30" height="20">
  <data encoding="csv">
0,0,0,0,0,0,0,0,0,0,0,0,0,0,0,0,0,0,0,0,0,0,0,0,0,0,0,0,0,0,
0,0,0,0,0,0,0,0,0,0,0,0,0,0,0,0,0,0,0,0,0,0,0,0,0,0,0,0,0,0,
0,0,0,0,0,0,0,0,0,0,0,0,0,0,0,0,0,0,0,0,0,0,0,0,0,0,0,0,0,0,
0,0,0,0,0,0,0,0,0,0,0,0,0,0,0,0,0,0,0,0,0,0,0,0,0,0,0,0,0,0,
0,0,0,0,0,0,0,0,0,0,0,0,0,0,0,0,0,0,0,0,0,0,0,0,0,0,0,0,0,0,
0,0,0,0,0,0,0,0,0,0,0,0,0,0,0,0,0,0,0,0,0,0,0,0,0,0,0,0,0,0,
0,0,0,0,0,0,0,0,0,23300,23301,23302,23303,0,0,0,0,0,0,0,0,0,0,0,0,0,0,0,0,0,
0,0,0,0,0,0,0,0,0,23332,23333,23334,23335,0,0,0,0,0,0,0,0,0,0,0,0,0,0,0,0,0,
0,0,0,0,0,0,0,0,0,23364,23365,23366,23367,0,0,0,0,0,0,0,0,0,0,0,0,0,0,0,0,0,
0,0,0,0,0,0,0,0,0,0,0,0,0,0,0,0,0,0,0,0,0,0,0,0,0,0,0,0,0,0,
0,0,0,0,0,0,0,0,0,0,0,0,0,0,0,0,0,0,0,0,0,0,0,0,0,0,0,0,0,0,
0,0,0,0,0,0,0,0,0,0,0,0,0,0,0,0,0,0,0,0,0,0,0,0,0,0,0,0,0,0,
0,0,0,0,0,0,0,0,0,0,0,0,0,0,0,0,0,0,0,0,0,0,0,0,0,0,0,0,0,0,
0,0,0,0,0,0,0,0,0,0,0,0,0,0,0,0,0,0,0,0,0,0,0,0,0,0,0,0,0,0,
0,0,0,0,0,0,0,0,23557,23558,23559,0,0,0,0,0,0,0,0,0,0,0,0,0,0,0,0,0,0,0,
0,0,0,0,0,0,0,0,23589,23590,23591,0,0,0,0,0,0,0,0,0,0,0,0,0,0,0,0,0,0,0,
0,0,0,0,0,0,0,0,23621,23622,23623,0,0,0,0,0,0,0,0,0,0,0,0,0,0,0,0,0,0,0,
0,0,0,0,0,0,0,0,23653,23654,23655,0,0,0,0,0,0,0,0,0,0,0,0,0,0,0,0,0,0,0,
0,0,0,0,0,0,0,0,23685,23686,23687,0,0,0,0,0,0,0,0,0,0,0,0,0,0,0,0,0,0,0,
0,0,0,0,0,0,0,0,23717,23718,23719,0,0,0,0,0,0,0,0,0,0,0,0,0,0,0,0,0,0,0
</data>
 </layer>
 <objectgroup id="13" name="collisions">
  <object id="21" name="building1" x="78.164" y="8.31532" width="133.045" height="143.023"/>
  <object id="22" x="234.492" y="9.97838"/>
  <object id="27" name="building2" x="234.492" y="6.65225" width="179.611" height="146.35"/>
  <object id="28" name="main-building" x="425.744" y="8.31532">
   <polygon points="0,0 -1.66306,141.36 59.8703,141.36 61.5333,119.741 143.023,116.414 146.35,144.687 187.926,144.687 191.252,159.654 251.123,159.654 251.123,153.002 402.461,149.676 405.787,-4.98919"/>
  </object>
  <object id="29" x="869.782" y="4.98919"/>
  <object id="30" name="building4" x="874.771" y="11.6414" width="88.1424" height="143.023"/>
  <object id="31" x="116.414" y="-139.697"/>
  <object id="32" name="car" x="296.025" y="226.177" width="109.762" height="53.218"/>
  <object id="33" name="bus" x="269.416" y="463.995" width="69.8487" height="169.632"/>
  <object id="34" x="199.568" y="-133.045"/>
 </objectgroup>
</map>
